X:1
T: La Morrisque
C:16th Century French
S:Arbeau's Orchesographie
O:Duns Tew
M:C|
L:1/4
K:G
|: d d d e | d3    c | B G G A/G/ | F2 D2  | 
   d d d e | d3    c | B G G A    | G2 G2 :| 
|: B G G A | B G G A | B G G A    | F2 D2  | 
   B G G A | B G G A | B G G A    | G2 G2 :| 
</abc>
  * Tony Forster, who participated in the 1986 Sidmouth workshop, described the original five dances in a humorous article, &quot;[[http://www.americanmorrisnews.org/pastissues/october2005v25n3/current_issue/tonyforsterv25n3dunstewnotes.html|Some Hitherto Lost Pages of Duns Tew; from the Journal of Cecil Sharp, recently re-discovered by Tony Forster]],&quot;((Tony Forster, &quot;Some Hitherto Lost Pages of Duns Tew; from the Journal of Cecil Sharp, recently re-discovered by Tony Forster,&quot; //**Morris Matters**// (vol. 9, no. 1, 1987); reprinted: //**American Morris Newsletter**// (vol. 25, no. 3, October 2005) ))
